src/assets/contactImage.svg

<svg xmlns="http://www.w3.org/2000/svg" width="601" height="550" fill="none" viewBox="0 0 601 550"><path fill="#242424" d="M599.767 515.922C602.638 493.88 580.589 476.525 559.42 469.842C538.251 463.16 514.544 461.531 497.207 447.65C478.958 432.988 470.115 406.341 448.034 398.428C431.991 392.693 414.522 399.01 397.732 401.853C381.66 404.474 365.228 403.878 349.386 400.097C333.545 396.316 318.609 389.427 305.441 379.827C298.639 374.84 292.169 368.988 284.256 366.063C276.342 363.137 267.218 363.403 258.641 364.4C235.564 367.11 211.823 375.339 197.141 393.375C189.659 402.584 184.914 413.871 176.851 422.582C163.844 436.645 144.002 442.115 124.974 444.192C105.945 446.27 86.5009 445.622 67.9531 450.36C52.9626 454.31 39.0619 461.617 27.2972 471.729C15.5326 481.842 6.21056 494.496 0.032959 508.741C4.21368 508.275 9.48934 511.035 13.6535 510.586L599.767 515.922Z"/><path stroke="#2ECC82" stroke-miterlimit="10" stroke-width="7" d="M307.582 207.143V124.908C307.582 106.832 314.748 89.496 327.504 76.7143C340.26 63.9326 357.561 56.752 375.601 56.752H379.749C397.789 56.752 415.09 63.9326 427.846 76.7143C440.602 89.496 447.768 106.832 447.768 124.908V207.143"/><path fill="#20BE74" d="M442.078 207.143H222.972V56.7852H375.385C405.248 56.7852 442.078 81.0552 442.078 110.977V207.143Z"/><path fill="url(#paint0_linear_336_3)" d="M403.821 123.977H299.303C293.839 123.959 288.569 121.948 284.478 118.32C280.386 114.691 277.754 109.694 277.072 104.262L264.53 66.9756H382.884C402.179 66.9756 428.491 82.7013 424.658 104.96C422.999 114.818 415.733 123.246 405.364 123.861C404.85 123.96 404.352 123.977 403.821 123.977Z" opacity=".26"/><path fill="#3A3A3A" d="M352.193 0H319.825V125.573C319.751 128.083 320.18 130.583 321.087 132.925C321.994 135.266 323.361 137.401 325.107 139.203C326.853 141.005 328.942 142.438 331.251 143.416C333.559 144.395 336.041 144.899 338.547 144.899C341.054 144.899 343.535 144.395 345.844 143.416C348.152 142.438 350.241 141.005 351.987 139.203C353.733 137.401 355.1 135.266 356.007 132.925C356.915 130.583 357.344 128.083 357.269 125.573V101.718L333.296 85.5105V25.3506H352.193C354.599 25.3506 356.908 24.3926 358.609 22.6873C360.311 20.9821 361.267 18.6692 361.267 16.2576V9.09297C361.267 6.68137 360.311 4.36853 358.609 2.66327C356.908 0.958009 354.599 0 352.193 0Z"/><path fill="#fff" d="M344.793 123.976C344.793 125.292 344.404 126.577 343.675 127.671C342.946 128.764 341.909 129.616 340.697 130.12C339.484 130.623 338.15 130.755 336.863 130.498C335.575 130.241 334.393 129.608 333.465 128.678C332.537 127.748 331.905 126.564 331.649 125.274C331.393 123.984 331.524 122.647 332.026 121.432C332.529 120.217 333.379 119.178 334.471 118.448C335.562 117.717 336.845 117.327 338.157 117.327C339.917 117.327 341.605 118.028 342.85 119.275C344.094 120.522 344.793 122.213 344.793 123.976Z"/><path fill="url(#paint1_linear_336_3)" d="M442.062 168.71H295.985V207.143H442.062V168.71Z"/><path fill="#126F43" d="M293.032 207.143H152.895V124.908C152.895 106.832 160.061 89.496 172.817 76.7143C185.573 63.9326 202.875 56.752 220.914 56.752H225.062C243.102 56.752 260.403 63.9326 273.159 76.7143C285.915 89.496 293.082 106.832 293.082 124.908L293.032 207.143Z"/><path fill="#2ECC82" d="M293.032 193.146H78.7866V207.143H293.032V193.146Z"/><path fill="#2ECC82" d="M344.424 207.485H310.42V515.968H344.424V207.485Z"/><path fill="#126F43" d="M343.98 242.85L310.319 259.474V207.144H343.98V242.85Z"/><path fill="#F3F3F5" d="M282.829 100.688H123.165V193.147H287.723V124.908C287.732 116.587 286.068 108.349 282.829 100.688Z"/><path fill="url(#paint2_linear_336_3)" d="M212.138 100.688H123.149V193.147H212.138V100.688Z"/><path fill="#9E9E9E" d="M163.413 112.706H134.331V115.266H163.413V112.706Z"/><path fill="#9E9E9E" d="M163.413 118.924H134.331V121.484H163.413V118.924Z"/><path fill="#9E9E9E" d="M163.413 125.124H134.331V127.684H163.413V125.124Z"/><path fill="#9E9E9E" d="M145.031 131.324H134.331V133.884H145.031V131.324Z"/><path fill="#D6D6D6" d="M252.054 154.63C262.628 154.63 271.199 146.042 271.199 135.447C271.199 124.852 262.628 116.264 252.054 116.264C241.481 116.264 232.909 124.852 232.909 135.447C232.909 146.042 241.481 154.63 252.054 154.63Z"/><path fill="#EDEDED" d="M263.95 140.567H173.367V193.147H263.95V140.567Z"/><path fill="url(#paint3_linear_336_3)" d="M173.367 140.567L218.675 172.867L263.966 140.567H173.367Z"/><g style="mix-blend-mode:multiply" opacity=".38"><path fill="#606060" d="M219.737 56.7852H215.589C209.91 56.7802 204.253 57.4895 198.75 58.8964C213.382 62.6464 226.352 71.1692 235.616 83.1212C244.879 95.0732 249.91 109.775 249.914 124.908V207.143H287.723V124.908C287.714 106.843 280.549 89.5211 267.801 76.7475C255.053 63.974 237.765 56.794 219.737 56.7852Z"/></g><path fill="#2ECC82" d="M225.045 50.9667H220.832C205.482 50.8913 190.497 55.6508 177.994 64.5727C165.49 73.4946 156.101 86.1278 151.153 100.687H163.695C168.373 89.3752 176.304 79.7135 186.479 72.9316C196.653 66.1498 208.611 62.5544 220.832 62.603H224.996C241.483 62.6206 257.29 69.1899 268.95 80.87C280.61 92.55 287.17 108.387 287.192 124.907V207.143H298.805V124.907C298.779 105.311 291.001 86.5242 277.175 72.6643C263.348 58.8044 244.603 51.0019 225.045 50.9667Z"/><path fill="url(#paint4_linear_336_3)" d="M570.254 549.984C572.41 533.477 555.903 520.494 540.059 515.49C524.216 510.487 506.448 509.257 493.474 498.867C479.754 487.879 473.185 467.948 456.644 462.013C444.633 457.724 431.56 462.445 418.984 464.573C406.946 466.542 394.637 466.098 382.77 463.268C370.903 460.437 359.715 455.276 349.853 448.083C344.76 444.326 339.899 439.971 333.993 437.776C328.087 435.582 321.235 435.781 314.798 436.546C297.528 438.574 279.76 444.741 268.76 458.24C263.153 465.138 259.603 473.583 253.564 480.116C243.825 490.638 228.961 494.728 214.71 496.29C200.459 497.853 185.909 497.354 172.023 500.895C160.798 503.85 150.388 509.321 141.58 516.894C132.771 524.467 125.794 533.946 121.174 544.614C124.293 544.265 128.242 546.277 131.361 545.994L570.254 549.984Z"/><defs><linearGradient id="paint0_linear_336_3" x1="344.777" x2="344.777" y1="123.977" y2="67.042" gradientUnits="userSpaceOnUse"><stop offset=".06" stop-color="#fff"/><stop offset=".14" stop-color="#fff" stop-opacity=".98"/><stop offset=".26" stop-color="#fff" stop-opacity=".9"/><stop offset=".4" stop-color="#fff" stop-opacity=".79"/><stop offset=".55" stop-color="#fff" stop-opacity=".63"/><stop offset=".72" stop-color="#fff" stop-opacity=".42"/><stop offset=".89" stop-color="#fff" stop-opacity=".18"/><stop offset="1" stop-color="#fff" stop-opacity="0"/></linearGradient><linearGradient id="paint1_linear_336_3" x1="369.032" x2="369.032" y1="207.143" y2="168.71" gradientUnits="userSpaceOnUse"><stop stop-color="#2ECC82"/><stop offset="1" stop-color="#2ECC82" stop-opacity="0"/></linearGradient><linearGradient id="paint2_linear_336_3" x1="123.149" x2="212.138" y1="146.917" y2="146.917" gradientUnits="userSpaceOnUse"><stop stop-color="#fff"/><stop offset="1" stop-color="#fff" stop-opacity="0"/></linearGradient><linearGradient id="paint3_linear_336_3" x1="173.367" x2="263.966" y1="156.725" y2="156.725" gradientUnits="userSpaceOnUse"><stop offset=".35" stop-color="#fff"/><stop offset=".41" stop-color="#fff" stop-opacity=".98"/><stop offset=".49" stop-color="#fff" stop-opacity=".91"/><stop offset=".58" stop-color="#fff" stop-opacity=".8"/><stop offset=".69" stop-color="#fff" stop-opacity=".65"/><stop offset=".79" stop-color="#fff" stop-opacity=".45"/><stop offset=".91" stop-color="#fff" stop-opacity=".22"/><stop offset="1" stop-color="#fff" stop-opacity="0"/></linearGradient><linearGradient id="paint4_linear_336_3" x1="345.805" x2="345.805" y1="435.998" y2="549.984" gradientUnits="userSpaceOnUse"><stop stop-color="#fff" stop-opacity=".5"/><stop offset=".01" stop-color="#fff" stop-opacity=".48"/><stop offset=".08" stop-color="#fff" stop-opacity=".35"/><stop offset=".15" stop-color="#fff" stop-opacity=".24"/><stop offset=".24" stop-color="#fff" stop-opacity=".15"/><stop offset=".33" stop-color="#fff" stop-opacity=".08"/><stop offset=".45" stop-color="#fff" stop-opacity=".04"/><stop offset=".61" stop-color="#fff" stop-opacity=".01"/><stop offset="1" stop-color="#fff" stop-opacity="0"/></linearGradient></defs></svg>

<svg xmlns="http://www.w3.org/2000/svg" width="601" height="550" fill="none"><path fill="#242424" d="M599.767 515.922c2.871-22.042-19.178-39.397-40.347-46.08-21.169-6.682-44.876-8.311-62.213-22.192-18.249-14.662-27.092-41.309-49.173-49.222-16.043-5.735-33.512.582-50.302 3.425a122.981 122.981 0 0 1-48.346-1.756 123.114 123.114 0 0 1-43.945-20.27c-6.802-4.987-13.272-10.839-21.185-13.764-7.914-2.926-17.038-2.66-25.615-1.663-23.077 2.71-46.818 10.939-61.5 28.975-7.482 9.209-12.227 20.496-20.29 29.207-13.007 14.063-32.849 19.533-51.877 21.61-19.029 2.078-38.473 1.43-57.02 6.168a102.404 102.404 0 0 0-40.657 21.369A102.672 102.672 0 0 0 .033 508.741c4.18-.466 9.456 2.294 13.62 1.845l586.114 5.336Z"/><path stroke="#2ECC82" stroke-miterlimit="10" stroke-width="7" d="M307.582 207.143v-82.235a68.226 68.226 0 0 1 19.922-48.194 67.95 67.95 0 0 1 48.097-19.962h4.148a67.95 67.95 0 0 1 48.097 19.962 68.226 68.226 0 0 1 19.922 48.194v82.235"/><path fill="#20BE74" d="M442.078 207.143H222.972V56.785h152.413c29.863 0 66.693 24.27 66.693 54.192v96.166Z"/><path fill="url(#a)" d="M403.821 123.977H299.303a22.454 22.454 0 0 1-14.825-5.657 22.541 22.541 0 0 1-7.406-14.058L264.53 66.976h118.354c19.295 0 45.607 15.725 41.774 37.984-1.659 9.858-8.925 18.286-19.294 18.901-.514.099-1.012.116-1.543.116Z" opacity=".26"/><path fill="#3A3A3A" d="M352.193 0h-32.368v125.573c-.074 2.51.355 5.01 1.262 7.352a18.763 18.763 0 0 0 4.02 6.278 18.724 18.724 0 0 0 13.44 5.696 18.69 18.69 0 0 0 7.297-1.483 18.763 18.763 0 0 0 10.163-10.491 18.786 18.786 0 0 0 1.262-7.352v-23.855L333.296 85.51V25.35h18.897a9.063 9.063 0 0 0 6.416-2.663 9.102 9.102 0 0 0 2.658-6.43V9.094a9.102 9.102 0 0 0-2.658-6.43A9.064 9.064 0 0 0 352.193 0Z"/><path fill="#fff" d="M344.793 123.976a6.648 6.648 0 0 1-4.096 6.144 6.622 6.622 0 0 1-7.232-1.442 6.665 6.665 0 0 1-1.439-7.246 6.645 6.645 0 0 1 6.131-4.105c1.76 0 3.448.701 4.693 1.948a6.657 6.657 0 0 1 1.943 4.701Z"/><path fill="url(#b)" d="M442.062 168.71H295.985v38.433h146.077V168.71Z"/><path fill="#126F43" d="M293.032 207.143H152.895v-82.235a68.226 68.226 0 0 1 19.922-48.194 67.952 67.952 0 0 1 48.097-19.962h4.148a67.95 67.95 0 0 1 48.097 19.962 68.227 68.227 0 0 1 19.923 48.194l-.05 82.235Z"/><path fill="#2ECC82" d="M293.032 193.146H78.787v13.997h214.245v-13.997Zm51.392 14.339H310.42v308.483h34.004V207.485Z"/><path fill="#126F43" d="m343.98 242.85-33.661 16.624v-52.33h33.661v35.706Z"/><path fill="#F3F3F5" d="M282.829 100.688H123.165v92.459h164.558v-68.239a62.027 62.027 0 0 0-4.894-24.22Z"/><path fill="url(#c)" d="M212.138 100.688h-88.989v92.459h88.989v-92.459Z"/><path fill="#9E9E9E" d="M163.413 112.706h-29.082v2.56h29.082v-2.56Zm0 6.218h-29.082v2.56h29.082v-2.56Zm0 6.2h-29.082v2.56h29.082v-2.56Zm-18.382 6.2h-10.7v2.56h10.7v-2.56Z"/><path fill="#D6D6D6" d="M252.054 154.63c10.574 0 19.145-8.588 19.145-19.183s-8.571-19.183-19.145-19.183c-10.573 0-19.145 8.588-19.145 19.183s8.572 19.183 19.145 19.183Z"/><path fill="#EDEDED" d="M263.95 140.567h-90.583v52.58h90.583v-52.58Z"/><path fill="url(#d)" d="m173.367 140.567 45.308 32.3 45.291-32.3h-90.599Z"/><path fill="#606060" d="M219.737 56.785h-4.148a67.74 67.74 0 0 0-16.839 2.111 68.01 68.01 0 0 1 36.866 24.225 68.248 68.248 0 0 1 14.298 41.787v82.235h37.809v-82.235a68.225 68.225 0 0 0-19.922-48.16 67.952 67.952 0 0 0-48.064-19.963Z" style="mix-blend-mode:multiply" opacity=".38"/><path fill="#2ECC82" d="M225.045 50.967h-4.213a73.128 73.128 0 0 0-42.838 13.606 73.358 73.358 0 0 0-26.841 36.114h12.542a61.679 61.679 0 0 1 22.784-27.755 61.492 61.492 0 0 1 34.353-10.329h4.164A62.2 62.2 0 0 1 268.95 80.87a62.45 62.45 0 0 1 18.242 44.037v82.236h11.613v-82.236a74.113 74.113 0 0 0-21.63-52.243 73.821 73.821 0 0 0-52.13-21.697Z"/><path fill="url(#e)" d="M570.254 549.984c2.156-16.507-14.351-29.49-30.195-34.494-15.843-5.003-33.611-6.233-46.585-16.623-13.72-10.988-20.289-30.919-36.83-36.854-12.011-4.289-25.084.432-37.66 2.56a92.053 92.053 0 0 1-36.214-1.305 92.144 92.144 0 0 1-32.917-15.185c-5.093-3.757-9.954-8.112-15.86-10.307-5.906-2.194-12.758-1.995-19.195-1.23-17.27 2.028-35.038 8.195-46.038 21.694-5.607 6.898-9.157 15.343-15.196 21.876-9.739 10.522-24.603 14.612-38.854 16.174-14.251 1.563-28.801 1.064-42.687 4.605a76.616 76.616 0 0 0-30.443 15.999 76.804 76.804 0 0 0-20.406 27.72c3.119-.349 7.068 1.663 10.187 1.38l438.893 3.99Z"/><defs><linearGradient id="a" x1="344.777" x2="344.777" y1="123.977" y2="67.042" gradientUnits="userSpaceOnUse"><stop offset=".06" stop-color="#fff"/><stop offset=".14" stop-color="#fff" stop-opacity=".98"/><stop offset=".26" stop-color="#fff" stop-opacity=".9"/><stop offset=".4" stop-color="#fff" stop-opacity=".79"/><stop offset=".55" stop-color="#fff" stop-opacity=".63"/><stop offset=".72" stop-color="#fff" stop-opacity=".42"/><stop offset=".89" stop-color="#fff" stop-opacity=".18"/><stop offset="1" stop-color="#fff" stop-opacity="0"/></linearGradient><linearGradient id="b" x1="369.032" x2="369.032" y1="207.143" y2="168.71" gradientUnits="userSpaceOnUse"><stop stop-color="#2ECC82"/><stop offset="1" stop-color="#2ECC82" stop-opacity="0"/></linearGradient><linearGradient id="c" x1="123.149" x2="212.138" y1="146.917" y2="146.917" gradientUnits="userSpaceOnUse"><stop stop-color="#fff"/><stop offset="1" stop-color="#fff" stop-opacity="0"/></linearGradient><linearGradient id="d" x1="173.367" x2="263.966" y1="156.725" y2="156.725" gradientUnits="userSpaceOnUse"><stop offset=".35" stop-color="#fff"/><stop offset=".41" stop-color="#fff" stop-opacity=".98"/><stop offset=".49" stop-color="#fff" stop-opacity=".91"/><stop offset=".58" stop-color="#fff" stop-opacity=".8"/><stop offset=".69" stop-color="#fff" stop-opacity=".65"/><stop offset=".79" stop-color="#fff" stop-opacity=".45"/><stop offset=".91" stop-color="#fff" stop-opacity=".22"/><stop offset="1" stop-color="#fff" stop-opacity="0"/></linearGradient><linearGradient id="e" x1="345.805" x2="345.805" y1="435.998" y2="549.984" gradientUnits="userSpaceOnUse"><stop stop-color="#fff" stop-opacity=".5"/><stop offset=".01" stop-color="#fff" stop-opacity=".48"/><stop offset=".08" stop-color="#fff" stop-opacity=".35"/><stop offset=".15" stop-color="#fff" stop-opacity=".24"/><stop offset=".24" stop-color="#fff" stop-opacity=".15"/><stop offset=".33" stop-color="#fff" stop-opacity=".08"/><stop offset=".45" stop-color="#fff" stop-opacity=".04"/><stop offset=".61" stop-color="#fff" stop-opacity=".01"/><stop offset="1" stop-color="#fff" stop-opacity="0"/></linearGradient></defs></svg>
